source/images/icons/icon-shooter.svg

<svg width="100" height="100" viewBox="0 0 100 100" xmlns="http://www.w3.org/2000/svg" xmlns:sketch="http://www.bohemiancoding.com/sketch/ns"><title>icon-shooter</title><desc>Created with Sketch.</desc><path d="M87.926 69.25c-.227-1.199-1.051-3.523-2.324-6-1.2-2.477-3.375-5.324-5.551-8.551-1.649-2.398-2.926-7.5-3.375-9.226-.449-1.727-.824-4.875-.524-6.149.301-1.351 2.399-2.625 3.149-2.699.75-.074 2.324 0 2.551-.375.226-.301.3-1.273.226-1.5-.074-.375-.375-.824-.375-.824v-6.524s0-1.051-.976-1.051h-2.176s-.375-1.351-.528-1.351h-1.125c-.148 0-.449 1.351-.449 1.351h-22.199c-.227 0-.301.301-.301.301h-10.347s-.075-.301-.301-.301h-25.875s-.227-.75-.524-.75c-.601 0-.976.75-.976.75h-1.5c-.899 0-.824 1.876-.824 1.876s-.602.148-.602.601v4.125c.074.375.602.602.602.602v3.523c0 1.199.3 2.852.898 3.074.75.301 3.676.899 5.477.899h1.8l.075-.227h1.351s0 .227.074.227c2.399.148 9.524.449 14.102.676.301 0 1.426 1.05 1.5 1.273.074.227 0 5.023-.074 5.324-.149.449-.676 1.574-.75 1.875-.075.301 0 .824.523 1.199.301.227.75.45 1.426.45.601.074 12.449.3 13.351.226.899 0 2.399-1.199 3.227-1.199.75 0 2.023 0 2.324.602l2.102 4.199c.148.375-.676 1.574-.301 2.25.301.523 1.273.301 1.574.898.301.602 1.125 2.477 1.352 3.074.148.375-.524 1.727-.301 2.176.301.524 1.199.602 1.574 1.352.375.75 1.574 3.226 1.649 4.273.074.824-.227 2.324.074 3 .449.899.976 1.051.976 1.051s-.226 1.125-.148 1.5c.148.449.602.898 1.5.898h13.426c.375 0 1.125-1.351 1.273-1.574.149-.226.074-.523.074-.523s.977-.375 1.274-.45c.301-.148 1.949-1.124 2.324-1.8.524-.676.82-1.348.598-2.551zm-32.102-21.598c-.375.977-2.324 1.727-2.926 1.801-.449.074-7.726 0-9.148-.074-1.426-.074-2.398-1.352-2.699-2.25-.227-.602-.449-3.375.375-4.352.449-.523 1.648-1.648 3.301-1.648 1.875 0 5.476.523 5.476.523s.149.524.301 1.125c.148.602 0 1.5-.227 2.324-.226.825-1.05 1.575-2.023 2.176-.899.602-.977.977-.824 1.125.226.301.601.301.601.301s-.375.676.602.524c.523-.075 1.574-.676 2.324-1.2.523-.375.898-.824 1.125-1.05.074-.149.449-.676.977-1.2.074-.148.148-.226.226-.3.676-.75 1.426-1.426 1.875-1.352.074-.074.149-.074.149-.074s.449.449.675 1.125c.289.449.215 1.574-.16 2.476z" sketch:type="MSShapeGroup" fill="#fff"/></svg>

<?xml version="1.0" encoding="UTF-8" standalone="no"?>
<svg width="100px" height="100px" viewBox="0 0 100 100" version="1.1" xmlns="http://www.w3.org/2000/svg" xmlns:xlink="http://www.w3.org/1999/xlink" xmlns:sketch="http://www.bohemiancoding.com/sketch/ns">
    <!-- Generator: Sketch 3.5.1 (25234) - http://www.bohemiancoding.com/sketch -->
    <title>icon-shooter</title>
    <desc>Created with Sketch.</desc>
    <defs></defs>
    <g id="Page-1" stroke="none" stroke-width="1" fill="none" fill-rule="evenodd" sketch:type="MSPage">
        <g id="icon-shooter" sketch:type="MSArtboardGroup" fill="#000000">
            <path d="M87.926,69.25 C87.699,68.051 86.875,65.727 85.602,63.25 C84.402,60.773 82.227,57.926 80.051,54.699 C78.402,52.301 77.125,47.199 76.676,45.473 C76.227,43.746 75.852,40.598 76.152,39.324 C76.453,37.973 78.551,36.699 79.301,36.625 C80.051,36.551 81.625,36.625 81.852,36.25 C82.078,35.949 82.152,34.977 82.078,34.75 C82.004,34.375 81.703,33.926 81.703,33.926 L81.703,27.402 C81.703,27.402 81.703,26.351 80.727,26.351 L78.551,26.351 C78.551,26.351 78.176,25 78.023,25 L76.898,25 C76.75,25 76.449,26.351 76.449,26.351 L54.25,26.351 C54.023,26.351 53.949,26.652 53.949,26.652 L43.602,26.652 C43.602,26.652 43.527,26.351 43.301,26.351 L17.426,26.351 C17.426,26.351 17.199,25.601 16.902,25.601 C16.301,25.601 15.926,26.351 15.926,26.351 L14.426,26.351 C13.527,26.351 13.602,28.227 13.602,28.227 C13.602,28.227 13,28.375 13,28.828 L13,32.953 C13.074,33.328 13.602,33.555 13.602,33.555 L13.602,37.078 C13.602,38.277 13.902,39.93 14.5,40.152 C15.25,40.453 18.176,41.051 19.977,41.051 L21.777,41.051 L21.852,40.824 L23.203,40.824 C23.203,40.824 23.203,41.051 23.277,41.051 C25.676,41.199 32.801,41.5 37.379,41.727 C37.68,41.727 38.805,42.777 38.879,43 C38.953,43.227 38.879,48.023 38.805,48.324 C38.656,48.773 38.129,49.898 38.055,50.199 C37.98,50.5 38.055,51.023 38.578,51.398 C38.879,51.625 39.328,51.848 40.004,51.848 C40.605,51.922 52.453,52.148 53.355,52.074 C54.254,52.074 55.754,50.875 56.582,50.875 C57.332,50.875 58.605,50.875 58.906,51.477 C59.508,52.676 60.855,55.375 61.008,55.676 C61.156,56.051 60.332,57.25 60.707,57.926 C61.008,58.449 61.98,58.227 62.281,58.824 C62.582,59.426 63.406,61.301 63.633,61.898 C63.781,62.273 63.109,63.625 63.332,64.074 C63.633,64.598 64.531,64.676 64.906,65.426 C65.281,66.176 66.48,68.652 66.555,69.699 C66.629,70.523 66.328,72.023 66.629,72.699 C67.078,73.598 67.605,73.75 67.605,73.75 C67.605,73.75 67.379,74.875 67.457,75.25 C67.605,75.699 68.059,76.148 68.957,76.148 L82.383,76.148 C82.758,76.148 83.508,74.797 83.656,74.574 C83.805,74.348 83.73,74.051 83.73,74.051 C83.73,74.051 84.707,73.676 85.004,73.601 C85.305,73.453 86.953,72.477 87.328,71.801 C87.852,71.125 88.148,70.453 87.926,69.25 L87.926,69.25 Z M55.824,47.652 C55.449,48.629 53.5,49.379 52.898,49.453 C52.449,49.527 45.172,49.453 43.75,49.379 C42.324,49.305 41.352,48.027 41.051,47.129 C40.824,46.527 40.602,43.754 41.426,42.777 C41.875,42.254 43.074,41.129 44.727,41.129 C46.602,41.129 50.203,41.652 50.203,41.652 C50.203,41.652 50.352,42.176 50.504,42.777 C50.652,43.379 50.504,44.277 50.277,45.101 C50.051,45.926 49.227,46.676 48.254,47.277 C47.355,47.879 47.277,48.254 47.43,48.402 C47.656,48.703 48.031,48.703 48.031,48.703 C48.031,48.703 47.656,49.379 48.633,49.227 C49.156,49.152 50.207,48.551 50.957,48.027 C51.48,47.652 51.855,47.203 52.082,46.977 L52.082,46.977 L52.082,46.977 C52.156,46.828 52.531,46.301 53.059,45.777 C53.133,45.629 53.207,45.551 53.285,45.477 C53.961,44.727 54.711,44.051 55.16,44.125 C55.234,44.051 55.309,44.051 55.309,44.051 C55.309,44.051 55.758,44.5 55.984,45.176 C56.273,45.625 56.199,46.75 55.824,47.652 L55.824,47.652 Z" id="Page-1" sketch:type="MSShapeGroup"></path>
        </g>
    </g>
</svg>
